!!!OTL: 525. Warnung vor dem Rhein.
!!!COM: G. E. Pöthko
!!!ODT: 1848 (vor)
!!!ARE: Europa, Mitteleuropa, Deutschland
!!!SCT: B0525
!!!TXL: @@DE
!!!YEM: Copyright 1995, estate of Helmut Schaffrath.
**kern	**text
*ICvox	*
*Ivox	*
*clefG2	*
*M6/8	*
*k[f#c#]	*
*D:	*
!LO:TX:a:t=Lebhaft.	!
{16d	An
16e	den
=1	=1
4f#	Rhein,
16f#	an
16g	den
4a	Rhein,
8d	ʒieh'
=2	=2
8b	nicht
8a	an
8g#	den
4a}	Rhein,
{8a	mein
=3	=3
4dd	Sohn,
8d	ich
8.f#	ra-
16e	-the
8d	dir
=4	=4
[4.a	gut!
8a]	.
8r}	.
{8a	Da
=5	=5
8b	geht
8a	dir
8cc#	das
8.ee	Le-
16dd	-ben
8a	ʒu
=6	=6
4b	lieb-
16aL	-lich
16gJ	.
4f#}	ein,
{8dd	da
=7	=7
8cc#	blüht
8b	dir
8g	ʒu
8.f#	freu-
16g	-dig
8e	der
=8	=8
[4.d	Muth!
8d]	.
8r}	.
==	==
!!!AGN: Wander - Lied
!!!GTL: Wanderlieder
!!!ONB: ESAC (Essen Associative Code) Database: BOEHME
!!!AMT: compound duple
!!!AIN: vox
!!!EED: Helmut Schaffrath
!!!EEV: 1.0
!!Pöthko vor 1848.
!!@@COMMENT:"Gedicht von K. Simrock. Köln a. Rh. 1840. Ʒuerſt im Rbein. Jahrb. f. Kunſt u. Poeſie".
!!S. 501. Vorſtebende Mel. ſteht in allen Commersbüchern; ſchon 1848 im Liederb. von J. Schanʒ
!!und Parucker. Leipʒig 1848 S. 233. - Komponiſt Pöthko nicht näber bekannt."
!!@@END:
!!!Text: K. Simrock
!!!URL-scan: https://archive.org/details/BoehmeVtLieder1895/page/n417/mode/2up
!!!ENC: Anna Maria Matuszewska
!!!EEV: 2024/11/07
*-	*-
